X:43
%%score 1 2
%%staffscale 1.0
T:All flowers of the broom
M:3/4
L:1/4
K:G
V:1 clef-treble
V:2 clef-bass octave=-1
V:1
A>B A/G/|F>ED|d>e d/c/|B>AG|A>B A/G/|
V:2
F>G F/E/ & D3|A>GF & D3|{G,/}B>c B/A/|d>c B & G3|F>G F/E/ & D3|
V:1
F>ED|GGF & B,/C/D2|[DG]3||[B,DG][B,DG][DFA]|[DGB]>[DFA][B,G]|[CEc][DGB][DFA]|
V:2
A>GF & D3|[EG][DA]2|[GB]3||GGD|G>DE|G,DD|
V:1
[DGB][B,DG]2|A>B A/G/ & E3|FDE/F/ & DxC|GGF & B,/C/D2|[DG]3||
V:2
GG2|[CA]3|[DA]2[A,A]|[EG][DA]2|[GB]3||

